src/icons/cancel.icon.svg

<svg width="24px" height="24px" viewBox="0 0 24 24" version="1.1" xmlns="http://www.w3.org/2000/svg" xmlns:xlink="http://www.w3.org/1999/xlink">
    <!-- Generator: Sketch 49.2 (51160) - http://www.bohemiancoding.com/sketch -->
    <title>IconCancel</title>
    <desc>Created with Sketch.</desc>
    <defs></defs>
    <g id="Page-1" stroke="none" stroke-width="1" fill="none" fill-rule="evenodd">
        <g id="IconCancel">
            <path d="M12,2 C14.7634799,2 17.1209895,2.97808099 19.0725995,4.9342723 C21.0242096,6.89046362 22,9.24568263 22,12 C22,14.7543174 21.0242096,17.1095364 19.0725995,19.0657277 C17.1209895,21.021919 14.7634799,22 12,22 C9.23652014,22 6.87901054,21.021919 4.92740047,19.0657277 C2.9757904,17.1095364 2,14.7543174 2,12 C2,9.24568263 2.9757904,6.89046362 4.92740047,4.9342723 C6.87901054,2.97808099 9.23652014,2 12,2 Z M16.9882904,15.6150235 L13.381733,12 L16.9882904,8.38497653 L15.5831382,6.97652582 L11.9765808,10.5915493 L8.41686183,6.97652582 L7.0117096,8.38497653 L10.5714286,12 L7.0117096,15.6150235 L8.41686183,17.0234742 L11.9765808,13.4084507 L15.5831382,17.0234742 L16.9882904,15.6150235 Z" id="Combined-Shape" fill="currentColor"></path>
        </g>
    </g>
</svg>

<svg xmlns="http://www.w3.org/2000/svg" viewBox="0 0 24 24"><path d="M12 2c2.763 0 5.121.978 7.073 2.934C21.024 6.89 22 9.246 22 12c0 2.754-.976 5.11-2.927 7.066C17.12 21.022 14.763 22 12 22c-2.763 0-5.121-.978-7.073-2.934C2.976 17.11 2 14.754 2 12c0-2.754.976-5.11 2.927-7.066C6.88 2.978 9.237 2 12 2zm4.988 13.615L13.382 12l3.606-3.615-1.405-1.408-3.606 3.615-3.56-3.615-1.405 1.408L10.572 12l-3.56 3.615 1.405 1.408 3.56-3.615 3.606 3.615 1.405-1.408z" fill="currentColor" fill-rule="evenodd"/></svg>
